X:1
T:PSALM 23
T:FRANZ SCHUBERT ( 1797 - 1828 )    
T:Copyright  © 2001 The Choral Public Domain Library.   http://www.cpdl.org Edtion may be freely distributed, duplicated, performed or recorded.
T:PSALM 23
T:Copyright  © 2001 The Choral Public Domain Library.   http://www.cpdl.org Edtion may be freely distributed, duplicated, performed or recorded.
T:Copyright  © 2001 The Choral Public Domain Library.   http://www.cpdl.org Edtion may be freely distributed, duplicated, performed or recorded.
T:Copyright  © 2001 The Choral Public Domain Library.   http://www.cpdl.org Edtion may be freely distributed, duplicated, performed or recorded.
T:Copyright  © 2001 The Choral Public Domain Library.   http://www.cpdl.org Edtion may be freely distributed, duplicated, performed or recorded.
T:Copyright  © 2001 The Choral Public Domain Library.   http://www.cpdl.org Edtion may be freely distributed, duplicated, performed or recorded.
T:Copyright  © 2001 The Choral Public Domain Library.   http://www.cpdl.org Edtion may be freely distributed, duplicated, performed or recorded.
T:Copyright  © 2001 The Choral Public Domain Library.   http://www.cpdl.org Edtion may be freely distributed, duplicated, performed or recorded.
T:Copyright  © 2001 The Choral Public Domain Library.   http://www.cpdl.org Edtion may be freely distributed, duplicated, performed or recorded.
T:Copyright  © 2001 The Choral Public Domain Library.   http://www.cpdl.org Edtion may be freely distributed, duplicated, performed or recorded.
T:Copyright  © 2001 The Choral Public Domain Library.   http://www.cpdl.org Edtion may be freely distributed, duplicated, performed or recorded.
T:Copyright  © 2001 The Choral Public Domain Library.   http://www.cpdl.org Edtion may be freely distributed, duplicated, performed or recorded.
C:FRANZ SCHUBERT
C:( 1797 - 1828 )
Z:Copyright  © 2001 The Choral Public Domain Library.   http://www.cpdl.org
Z:Edtion may be freely distributed, duplicated, performed or recorded.
%%score [ ( 1 2 ) ( 3 4 ) ] { ( 5 6 ) | ( 7 8 ) }
L:1/8
Q:1/4=80
M:4/4
K:Ab
V:1 treble nm="Soprano" snm="S."
V:2 treble 
V:3 treble nm="Alto" snm="A."
V:4 treble 
V:5 treble nm="Accomp." snm="Pno"
V:6 treble 
V:7 treble 
V:8 treble 
V:1
"^Adagio" z8 | z8 | z8 | z4 z2!p! z"^(    )" e | e4!<(! e3!<)! e |!>(! (f2!>)! e2) z dcB | %6
w: |||The-|Lord- is- my-|* she\-~~pherd,- I- shall- not,-|
w: ||||Gott ist mein|Hirt, _ mir wird nichts|
 (A4 e3 d) | c4 z4 |!<(! e4 e3!<)! e |!>(! (a2!>)! c2) z def |!<(! (A4!<)!!>(! c3 B)!>)! | %11
w: shall not- not-|want.-|He- is- my-|shep- herd;- I- shall- not,-|shall _ not-|
w: man- * *|\-~geln.|Gott ist mein|Hirt, _ mir wird nichts|man- * *|
 A4 z2!pp! z E | (d>c) (c>B) B3 B | (A>B B>)e (e2 c)E | (d>c) (c>B) B3 B | (A>B) (B>e) e2 c"^He"c | %16
w: want.- He-|fee- * de- th- me- in-|pas- * * tures green _ He-|lea- * de- th- me- be-|side _ still _ wa- ter,- He-|
w: \-~geln. er|la- * gert _ mich auf|grü- * ne _ wei- de, er|lei- * tet _ mich an|sti- * llen * bä- chen, er|
"^lea  -  -  -  -  -  -  -  -  -  -  -  -  -  -deth""^-""^-"!<(! f6 f2!<)! |"^me," e6"^he" e2 | %18
w: fee- de-|pa- stures|
w: lei~~\-~~\-~~\-~~\-~~\-~~\-~~\-~~\-~~\-~~\-~~\-~~\-~~\-~~\-tet gert|mich, er|
 (ed)(d!>(!c) (ed)(dc) | (fe)(fe) (dc!>)! (3edc) |!ppp! B4 z4 | z4 z2!p! B2 | %22
w: lea- * deth- * me * be- *|side * still * wa- * * * *|\-~ters.|He-|
w: lei- * tet _ mich _ an _|sti- * llen _ bä- * * * *|\-~chen,|er|
"^NB rhythm for english" B3 B"^."!<(! B>B B>!<)!B |!>(! (c2 B2) z2 c2!>)! |!<(! d3 d e>e e>!<)!e | %25
w: shall- con- vert- * * my-|soul _ and-|bring- me- forth- in- paths- of-|
w: labt mein schmacht- en- des Ge-|\-~müt, _ er|führt mich auf ge- rech- tem|
 (_f>!>(!e)!>)! e2 z2"^cresc" e2 |!f!"^sempre" (!tenuto!_g4 _f4) | (!tenuto!e4 d4) |"^dim" _c8- | %29
w: righ- teous- ness- for-|his _|names _|sake.|
w: stei- * ge zu|sei- nes|na- mens|ruhm.|
 c2 z2!pp! z2 =B2 | =B3 B B3 B |!>(! =B2 B2 B2!>)! ^A2 | =B2- B2 z2 B2 | =B3 =A!<(! A3!<)! =e | %34
w: _ yea,-|though- I- walk- through-|death‘s- dark- sha- dow‘d-|vale, _ yet-|will- I- fear- no-|
w: _ Und|wall' ich auch im|to- des- scha- tten|ta- le, so|wall' ich ohn- ne|
!>(! (=e2!>)! =d2)!mf! z2 (ec) |!>(! =B3 B B2 (c=A)!>)! | G4!pp! z2 =d2 | =d3 d d3 d | %38
w: e- vil;- thy *|rod- and- staff- com- fort-|me,- yea,-|though- I- walk- through-|
w: furcht, _ denn _|du be- schü- tzest _|mich, und|wall' ich auch im|
!>(! =d2 d2 d2 ^c2!>)! | =d2- d2 z2 d2 | =d3!<(! c c3!<)! g |!>(! (g2!>)! f2) z2!mf! (ge) | %42
w: death‘s- dark- sha- dow‘d-|vale, _ yet-|will- I- fear- no-|e- vil- for _|
w: to- des- scha- tten|ta- le, so|wall' ich oh- ne||
 =d3"^dim" d d2 (ec) | B4!p! z2 B2 |"^poco"!<(! _d8-!<)! | d6 d2 | c6 c2 | c3!<(! c d2!<)! e2 | %48
w: thou- art- still- with _|me;- thy-|rod|_ and-|staff- they-|com- fort- me,- they-|
w: |* dein|stab|_ und|dei- ne|stü- tze sind mir|
 f3!>(! e d2!>)! c2 | =B4!<(! c2 d2!<)! | e3!>(! d!>)! c2 _B2 | =A4 (ABdB) | (A4 G2) z2 | z8 | %54
w: com- fort- me,- they-|com- fort,- they-|com- fort- me,- they-|com- fort _ _ _|me. _||
w: i- mmer- dar mein|trost, sind mir|i- mmer- dar mein|trost, mein _ _ _|trost. _||
 z4 z2!p! z E | (d>c) (c>B) B3 B | (A>B) (B>e) e3 E | ((d>c) (c>B)) B3 B | ((A>B) B>)e!pp! e3 c | %59
w: Thou-|hast _ pre- * pared- a-|ta- ble- for _ me- a-|gainst _ _ _ them- that-|trou- * * ble- me,- thou-|
w: Du|rich- * test _ mir ein|freu- * den- * mahl im|an- * ge- * sicht der|fein- * de _ zu, du|
!<(! f3!<)! f!>(! f2 f!>)!f |!<(! e3!<)! e!>(! e3!>)!!pp! e | ed!<(!dc ed!<)!dc | %62
w: hast- an- oin- ted- my-|head- with- oil,- and-|my _ cup _ shall _ be _|
w: salbst mein haupt mit _|ö- * le, und|schenkst * mir _ vo- * lle, _|
 f!>(!efe dc (3e!>)!dc | B4!p! z2 e2 | e3 e!<(! e3!<)! e |!>(! f3!>)! e edcB | A4 e3 d | c4 z4 | %68
w: full, * it _ shall _ be _ be|full.- Thy-|kind- ness- and- thy-|mer- cy- shall * ev- er-|fol- * low-|me;-|
w: vo- * lle _ be- * cher _ cher|ein, mir|fol- get heil und|se- li- gkeit in die- sem|le- * ben|nach,|
 e4!<(! e3!<)! e |!>(! a3!>)! c cdef | A4 c3 B | A4!ppp! z2 e2 | e3 d d2 fe | d3 c c2 c2 | %74
w: and- I- will-|dwell- for- e- ver- in- the-|house- of- the-|Lord.- Thy-|kind- ness- and- thy *|mer- * cy- shall-|
w: einst ruh' ich|ew'- ge zeit dort in des|ew'- * gen|haus, mir|fol- get heil und *|se- li- gkeit in|
!<(! B2 c2 (ed)!<)!!>)!!>(!cB | A4 d4 | c6 e2 | e2"^perdendosi" d2 dfed | d3 c c4 | %79
w: e- ver- fol- * low, *|fol- low-|me,- and-|I- will- dwell- for- e- ver-|in- the- house,|
w: die- * * * sem *|le- ben|nach, einst|ruh' _ _ _ ich _|ew'- ge zeit|
!<(! B2 c2!<)!!>(! ed!>)!cB | e8 | e4 e4 |!f!"^dim" e8- |!p! e4 z4 | z8 | z8 |] %86
w: in- the- house _ of- the-|Lord,|e- ver-|\-~more.|_|||
w: dort _ in _ des _|ew'-|* gen|haus.|_|||
V:2
 x8 | x8 | x8 | x7 c | c4 d3 d | c2 c2 x A=AB | _A4 G4 | A4 x4 | c4 d3 d | c2 e2 z AAA | E4 A3 G | %11
 A4 x3 E | B>A A>G G3 G | A>G G>A A2- AE | B>A A>G G3 G | A>G G>A A2 Ac | c2 de e2 dc | %17
 B2 cd d2 (cB) | A2 __B2 _A2 =B2 | A2 A2 GAGA | G4 x4 | x6 G2 | G3 G A>A A>A | G4 x2 B2 | %24
 A3 d d>d d>d | _c>c c2 x2 c2 | !tenuto!_c4 d4 | !tenuto!_c4 B4 | _G8- | G2 x4 ^F2 | %30
 ^F3 =A (A2 =G)G | ^F2 =F2 =E2 E2 | ^D2- D2 x2 D2 | =E3 =A A2 A2 | =B2 B2 x2 G2 | G3 G G2 ^F2 | %36
 G4 x2 =D2 | =A3 c (c2 B)B | =A2 _A2 G2 G2 | ^F2- F2 x2 F2 | G3 c c2 c2 | =d2 d2 x2 B2 | %42
 B3 B B2 =A2 | B4 x2 B2 | B8- | B6 B2 | B6 B2 | A3 A A2 A2 | A3 A A2 A2 | A4 A2 A2 | A3 A A2 _G2 | %51
 F4 F4 | E6 x2 | x8 | x7 E | B>A A>G G3 G | E>G G>A A3 E | B>A A>G G3 G | E>G G>A A3 c | %59
 c2 de e2 dc | (B2 c)d d2 cB | A2 __B2 A2 =B2 | A2 A2 GAGA | G4 x2 d2 | c3 c d3 d | c3 c cA=AB | %66
 A4 G3 G | A4 x4 | c4 d3 d | c3 e eAAA | A4 A3 G | A4 x2 c2 | c3 B B2 dc | B3 A A2 A2 | A6 A2 | %75
 A4 B4 | A6 c2 | c2 B2 BdcB | B3 A A4 | A4 A2 A2 | A4!<(! =A4 | B4!<)! =B4 | c8- | c4 x4 | x8 | %85
 x8 |] %86
V:3
 z8 | z8 | z8 | z4 z2!p! z"^(    )" A | A4!<(! B3!<)! B |!>(! (A2!>)! A2) z FFF | (E7 E) | A4 z4 | %8
w: ||||||||
w: ||||||||
!<(! A4 B3!<)! B |!>(! (A2!>)! A2 z) A_GF |!<(! (C4!<)!!>(! E4!>)! | E4 z4 | z4 z2!pp! z E | %13
w: ||||He-|
w: |||||
 c>B B>A A3 z | z4 z2 z E | c>B B>A A2 AA | =A2 Bc) c2 B_A | G2 AB B2 AG | F2 _G2 F2 G2 | FEFA E4 | %20
w: lea- * de- th- me-|be-|side _ still _ wa- ter,- He-|fee- * deth me- * in-||||
w: |an|sti- * llen * bä- chen, er|la- * gert mich * auf|_ _ _ _ _ _|||
!ppp! E4 z4 | z4 z2!p! E2 | E3 E F>F F>F | E4 z2 G2 | F3 A B>B B>B | A>A A2 z2 A2 | %26
w: ||||||
w: ||||||
 !tenuto!_G4 A4 | !tenuto!_G4 _F4 | E8- | E2 z2 z2 ^D2 | ^D3 ^F F2- =EE | ^D2 =D2 ^C2 =C2 | %32
w: ||||||
w: ||||||
 =B,2 B,2 z2 B,2 | C3 =E E2 F2 | G2 G2!mf! z2 =E2 | =D3 D D2 D2 | =D4!pp! z2 D2 | ^F3 =A (A2 G)G | %38
w: ||||||
w: ||||||
 ^F2 =F2 =E2 _E2 | =D2 D2 z2 D2 | E3 G G2 =A2 | (_B2 B2)!mf! z2 G2 | F3 F F2 F2 | F4 z4 | %44
w: ||||||
w: |||furcht, _ denn|du be- schü- tzest|mich,|
!p!"^poco" z8 | z4 z2!p!"^thy    rod         and staff   they"!<(! F2!<)! | (=G3 G F2) G2 | %47
w: |and-|staff _ _ they|
w: |dein|stab und dei- ne|
 F3 F F2 F2 | F3 F F2 F2 | F4 A2 F2 | E3 E E2 E2 | E4 D4 | E6 z2 | z8 | z8 | z4 z2 z!p! E | %56
w: ||||||||Thou|
w: |||||||||
 (c>B) (B>A) A3 z | z4 z2 z E | (c>B) (B>A)!pp! A3 A | =A2 (Bc) c2 (B_A | (G2 A)B) B2 (AG) | %61
w: hast _ pre- * pared|a|ta- ble- for _ me- *|||
w: rich- * test _ mir|ein||||
 F2!<(! _G2 F2!<)! G2 | FE!>(!FA E3!>)! E | E4!p! z2 G2 | A3 A!<(! B3!<)! B | A3 A AAFF | %66
w: |||||
w: |||||
 (E4 E3) E | E4 z4 | A4 B3 B | A3 A AA_GF | (C4 E3) E | E4!ppp! z2 E2 | F3 F G2 G2 | G3 A A2 z2 | %74
w: ||||||||
w: ||||||||
 (z4 z2)"^shall" A2 | E4 G4 | A6 E2 | (F3 F) G4 | G3 A A4 | z4 z2"^the" A-A |!<(! (E8 | %81
w: low,|fol- low-||I- will- dwell-||||
w: in|le- ben||ruh' _ ich||in des||
 G4)!<)! G4 |!f!"^dim" A8- |!p! A4 z4 | z8 | z8 |] %86
w: |||||
w: |||||
V:4
 x8 | x8 | x8 | x7 A | A4 G3 G | A2 A2 x FED | C4 B,3 E | E4 x4 | A4 G3 G | _G2 G2 z FCD | %10
 E4 E3 D | C4 x4 | x7 E | A>E E>C C3 x | x7 E | A>E E>C C2 EA | F3 F B,3 (C/D/) | E3 E A2 A,B,/C/ | %18
 D2 D2 D2 D2 | DCDC B,CB,C | E4 x4 | x6 E2 | E3 E =D>D D>D | E4 x2 =E2 | F3 F G>G G>G | %25
 A>A A2 x2 A2 | !tenuto!E4 _F4 | !tenuto!_G4 G4 | _C8- | C2 x4 =B,2 | =B,3 B, B,3 B, | %31
 =B,2 B,2 B,2 B,2 | =B,2- B,2 x2 B,2 | C3 C C2 C2 | =B,2 B,2 x2 C2 | =D3 D D2 DC | =B,4 x2 =D2 | %37
 =D3 D D3 D | =D2 D2 D2 D2 | (=D2 D2) x2 D2 | _E3 E E2 E2 | =D2 D2 x2 E2 | F3 F F2 (FE) | =D4 x4 | %44
 x4 z2!<(! F2!<)! | _G6 F2 | =E4 =D2 E2 | F3 F F2 F2 | F3 F F2 E2 | =D4 E2 F2 | C3 C C2 C2 | %51
 C4 D4 | E6 x2 | x8 | x8 | x7 E | A>E E>C C3 x | x7 E | A>E E>C C3 A | F3 F B2 B,C/D/ | %60
 E3 E A2 (A,B,/C/) | D2 D2 D2 D2 | DCDC B,CB,C | E4 x2 G2 | A3 A G3 G | A3 A AFED | C4 B,3 E | %67
 E4 x4 | A4 G3 G | _G3 G GFCD | E4 E3 D | C4 x2 C2 | D3 D E2 E2 | F3 F F2 C2 | D2 E2 F2 ED | %75
 (C4 E4) | A6 C2 | D3 D E4 | F3 F F4 | D2 E2 (_GF)ED | C8 | E4 D4 | A8 | A4 x4 | x8 | x8 |] %86
V:5
"^sempre legato" (3ec'e' (3ec'e' (3fc'e' (3gc'e' | (3ac'e' (3gc'e' (3bc'e' (3ac'e' | %2
w: ||
 (3gd'e' (3fd'e' (3ed'e' (3gbe' | (3cae' (3cae' (3eac' (3cea | (3Ace (3Ace (3Gde (3Gde | %5
w: |||
 (3Acf (3Ace (3FAd (3[EF]c[DFB] | (3CEA (3EAc (3GBe (3GBd | (3EAc (3EAc (3EBd (3E=B=d | %8
w: |||
 (3Ece (3Ace (3Gde (3Gde | (3_Gca (3GAc (3FAd (3[Ge]A-[Af] | (3CEA (3CEA (3EAc (3D=GB | %11
w: |||
 (3CEA (3EAc (3eca (3edc | (3def (3cde (3BcB (3GFE | (3cde (3BcB (3AcB (3ABc | %14
w: |* * * * * * * * * * * er|lei- * * tet _ _ mich * * * * *|
 (3def (3cde (3BcB (3GFE | (3cde (3BcB (3Ace (3ac'e' |!<(! (3ff'f (3f'ff'!<)! [ff']4 | %17
w: |||
 (3ee'e (3e'ee' [ee']4 | (3ac'd' (3__bf'e' (3ac'd' (3=bf'e' | %19
w: ||
 x21/32 (3:2:1a2 x21/32 (3:2:1a2 x21/32 (3:2:1e2 x21/32 (3:2:1e2 |!ppp! BeBe dc (3edc | %21
w: ||
 B=A (3cB_A (3AGF (3EGB | (3EGB (3EGB (3=DAB (3DAB | (3EGc (3EGB (3EGB (3GBc | %24
w: |||
 (3FAd (3FAd (3Bde (3Bde | (3A_c_f (3Ace (3Ace (3Ace | %26
w: ||
!f!"^sempre" (3z [_G_ce_g][Gceg] (3:2:1!/![Gceg]3 (3z [_FAd_f][FAdf] (3:2:1!/![FAdf]3 | %27
w: |
 (3z [E_G_ce][EGce] (3:2:1!/![EGce]3 (3z [_FGBd][FGBd] (3:2:1!/![FGBd]3 | %28
w: |
 (3z [_CE_G_c]"^dim"[CEGc] (3:2:1!/![CEGc]3 (3:2:1!/![CEGc]3!p! (3:2:1!/![CEGc]3 | %29
w: |
 (3[_CE_G_c]!>(!=B,B,!>)! (3:2:1!/!B,3 (3:2:1!/!B,3!pp! (3:2:1!/!B,3 | %30
w: |
 ([^D^F]3 [F=A]) ([FA]2 [=E=G]2 | [^D^F]2 [=D=F]2 [^C=E]2 [=CE^A]2) | [=B,^D=B]6 (3B,EB | %33
w: |||
 (3=C=E_c (3CE=A (3CEA (3^FA=e | (3G=B=e (3GB=d (3GBd (3=EGc | (3=DG=B (3DGB (3DGB (3C^F=A | %36
w: |||
 (3[=B,G]=DD (3:2:1!/!D3 (3:2:1!/!D3 (3:2:1!/!D3 | ([^F=A]3 [Ac]) ([Ac]2 [GB]2) | %38
w: ||
 ([^F=A]2 [=F_A]2 [=EG]2 [_EG^c]2) | [=D^F=d]6 (3DFd | (3_EG=d (3EGc (3EGc (3=Acg | %41
w: |||
 (3B=dg (3Bdf (3Bdf (3GBe | (3FB=d (3FBd (3FBd (3E=Ac | %43
w: ||
 (3=DFB (3:2:1!/!B3 (3:2:1!/!B3 (3:2:1!/!B3 | (3_DBd (3:2:1!/![Bd]3 (3:2:1!/![Bd]3 (3:2:1!/![Bd]3 | %45
w: |* * * * * dein|
 (3DBd (3:2:1!/![DBd]3 (3:2:1!/![_GBd]3 (3:2:1!/![FBd]3 | %46
w: stab * * * * und|
 (3:2:1!/![=EBc]3 (3:2:1!/![EBc]3 (3:2:1!/![=DBc]3 (3:2:1!/![EBc]3 | %47
w: dei- * * ne|
 (3:2:1!/![FAc]3 (3:2:1!/![FAc]3 (3:2:1!/![FAd]3 (3:2:1!/![FAe]3 | %48
w: |
 (3:2:1!/![FAf]3 (3[FAf][FAf][FAe] (3:2:1!/![FAd]3 (3:2:1!/![EFAc]3 | %49
w: |
 (3:2:1!/![=DA=B]3 (3:2:1!/![DAB]3!<(! (3:2:1!/![EA=c]3 (3:2:1!/![FA_d]3!<)! | %50
w: |
 (3:2:1!/![EAe]3 (3[EAe][EAe][EAd] (3:2:1!/![EAc]3 (3:2:1!/![E_GB]3 | %51
w: |
 (3:2:1!/![EF=A]3 (3:2:1!/![EFA]3 (3[DFA][DFA][DFB] (3[DFd][DFd][DFB] | %52
w: |
 (3:2:1!/![CEA]3 (3:2:1!/![CEA]3!<(! (3:2:1!/![B,EG]3!<)! (3:2:1!/![DEB]3 | %53
w: |
!>(! (3:2:1!/![CEA]3!>)! (3:2:1!/![_CEA]3 (3:2:1!/![B,EG]3!pp! (3:2:1!/![A,C=DF]3 | %54
w: |
 (3[G,B,E]F=D (3EGA (3=AB^F (3GBc | (3_def (3cde (3BcB (3GFE | (3cde (3BcB (3AcB (3ABc | %57
w: |* * * * * * * * * * Du *||
 (3def (3cde (3BcB (3GFE | (3cde (3BcB (3Ace (3ac'e' |!<(! (3ff'f (3f'f!<)!f'!>)!!>(! [ff']4 | %60
w: |freu- * * den- * * mahl * * * * *||
 (3ee'e (3e'ee'!pp!!>)!!>(! [ee']4 | (3ac'd' (3__bf'e' (3ac'd' (3=bf'e' | %62
w: ||
 x21/32 (3:2:1a2 x21/32 (3:2:1a2 x21/32 (3:2:1e2 x21/32 (3:2:1e2 | BeBe d!p!c (3edc | %64
w: ||
!pp! (3Ace (3Ace!<(! (3Gde (3Gd!<)!e |!>(! (3Acf (3Ac!>)!e (3Aed (3FcB | (3CEA (3EAc (3GBe (3GBd | %67
w: |||
 (3EAc!<(! (3EAc (3EBd (3E=B!<)!=d |!pp! (3Ece (3Ace (3Gde (3Gde | %69
w: ||
!>(! (3_Gca (3GA!>)!c (3Acd (3Aef | (3CEA (3CEA (3EAc (3DGB | (3CAE (3CEA (3EcA (3Ece | %72
w: |||
 (3Fce (3F[ce][Bd] (3GBd (3G[df][ce] | (3GBd (3G[Bd][Ac] (3FAc (3EAc | (3FAB (3z Ac (3z Ad (3z cB | %75
w: |||
 (3EAe (3EAe (3Gde (3Gde | (3Ace (3fec (3Ace (3ac'e' | %77
w: ||
 (3fc'e'"^perdendosi" (3fbd' (3gd'f' (3ge'd' | (3gbd' (3g!arpeggio!d'[ac'] (3[ac']cf (3ac'a | %79
w: ||
 (3BbB (3cc'c (3ee'd' (3cc'b | (3ee'c' (3aec (3z e'c' (3=a^fe | %81
w: ||
 (3z!<(! e'd' (3bge (3z e'e (3f'e'!<)!g' |!f! (3a'e'c' (3e'c'a (3c'ae (3aec | %83
w: ||
 (3ec'e' (3ec'e' (3fc'e' (3g"^molto    rall - en - tan - do"c'e' | %84
w: |
 (3ac'e' (3gc'e' (3bc'e' (3ac'e' | !arpeggio![ac'e']8 |] %86
w: ||
V:6
 e2 e2 f2 g2 | a2 g2 b2 a2 | g2 f2 e2 d2 | c2 c2 e2 c2 | x8 | x8 | x8 | x8 | x8 | x8 | x8 | x8 | %12
 x8 | x8 | x8 | x8 | x8 | x8 | a2 =b2 a2 b2 | (3z fe (3z fe (3z dc (3z dc | G2 G2 GAGA | %21
 E2 E=D ED E2 | x8 | x8 | x8 | x8 | x8 | x8 | x8 | x8 | x8 | x8 | x8 | x8 | x8 | x8 | x8 | x8 | %38
 x8 | x8 | x8 | x8 | x8 | x8 | x8 | x8 | x8 | x8 | x8 | x8 | x8 | x8 | x8 | x8 | x8 | x8 | x8 | %57
 x8 | x8 | x8 | x8 | x8 | (3z fe (3z fe (3z dc (3z dc | G2 G2 GA G2 | x8 | x4 A2 (3:2:2E2 [DF] | %66
 x8 | x8 | x8 | x4 (3:2:2A2 A (3:2:2_G2 [FA] | x8 | x8 | F2 F2 G2 G2 | x8 | x6 (3:2:1A2 | x8 | x8 | %77
 f2 f2 g2 g2 | x8 | x4 (3:2:2e2 d (3:2:2c2 B | x8 | x8 | x8 | e4 f2 g2 | a2 g2 b2 a2 | x8 |] %86
V:7
!pp! E4 F2 G2 |!<(! A2 G2 B2 A2!<)! |!>(! G2 F2 E2 G2!>)! |!>(! A8!>)! |!pp! [A,CE]4 [A,B,DE]4 | %5
 F2 E2 [F,A,D]2 [F,=A,][B,,B,] | [E,_A,C]4 B,3 E | [A,C]4 [B,D]2 [=B,=D]2 | [A,CE]4 [A,B,DE]4 | %9
 [A,CE]4 F2 C[DF] | E,8 | [A,,E,A,]4 z!pp! C- (3CDE | [B,D]2 [A,C]2 [G,B,]3 D | %13
 [CE]2 [DE]2 [CE]2 (3CDE | [B,D]2 [A,C]2 [G,B,]3 D | [CE]2 [DE]2 [CE]4 | %16
 [F,F]4[K:treble] (3B,BB, (3:2:4BB,C/D/ | [E,E]4 (3A,AA, (3:2:4AA,B,/C/ | %18
 [DFA]2!>(! [D_G__B]2 [DFA]2 [DG=B]2 | A2 A2 [B,=G][A,A][B,G]!>)![A,A] | %20
 (3:2:2z E2 (3:2:2z E2 (3:2:2z E2 (3:2:2z E2 | (3:2:2z B,2 (3:2:2z B,2 (3:2:2z!p! B,2 G,2 | %22
 [E,G,B,]4 [E,A,B,]4 | C2 B,4 C2 |!<(! [F,A,D]4!<)! [G,DE]4 |!>(! _F2 E4"^cresc" E2!>)! | %26
 (3[E,,E,][E,_G,_C][E,G,C] (3:2:1!/![E,G,C]3 (3[_F,,_F,][F,A,D][F,A,D] (3:2:1!/![F,A,D]3 | %27
 (3[_G,,_G,][G,_C][G,C] (3:2:1!/![G,C]3 (3[_G,,,G,,][G,B,D][G,B,D] (3:2:1!/![G,B,D]3 | %28
 (3[_C,,_C,][C,E,_G,]"^dim"[C,E,G,] (3:2:1!/![C,E,G,]3 (3:2:1!/![C,E,G,]3 (3:2:1!/![C,E,G,]3 | %29
 (3[_C,E,_G,][=B,,,=B,,][B,,,B,,] (3:2:1!/![B,,,B,,]3 (3:2:1!/![B,,,B,,]3 (3:2:1!/![B,,,B,,]3 | %30
 (3:2:1!/![=B,,,=B,,]3 (3:2:1!/![B,,,B,,]3 (3:2:1!/![B,,,B,,]3 (3:2:1!/![B,,,B,,]3 | %31
!>(! (3:2:1!/![=B,,,=B,,]3 (3:2:1!/![B,,,B,,]3 (3:2:1!/![B,,,B,,]3 (3:2:1!/![B,,,B,,]3 | %32
 (3:2:1!/![=B,,,=B,,]3!>)! (3:2:1!/![B,,,B,,]3 (3:2:1!/![B,,,B,,]3 z2 | z6!<)!!<(! C2 | %34
!>(! =B,6!mf! C,2!>)! |!>(! =D,6 [=D,,D,]2!>)! |!pp! [G,,=D,]4 z2 (3:2:1!/![=D,,D,]3 | %37
 (3:2:1!/![=D,,=D,]3 (3:2:1!/![D,,D,]3 (3:2:1!/![D,,D,]3 (3:2:1!/![D,,D,]3 | %38
!>(! (3:2:1!/![=D,,=D,]3 (3:2:1!/![D,,D,]3 (3:2:1!/![D,,D,]3 (3:2:1!/![D,,D,]3!>)! | %39
 (3:2:1!/![=D,,=D,]3 (3:2:1!/![D,,D,]3 (3:2:1!/![D,,D,]3 x2 | z6!<)!!<(! E2 |!>(! =D6!mf! E,2!>)! | %42
"^dim" F,8 |!p! B,8 | B,8 | _G,8 | =G,4 F,2 G,2 |!<(! [F,A,]8!<)! |!>(! [F,A,]8!>)! | A,8 | %50
!>(! A,6 _G,2!>)! | F,8 | E,8 | [E,,E,]8- | [E,,E,]2 z2 (3z G,=D,!p! (3E,G,=A, | %55
 [B,_D]2 [A,C]2 [G,B,]3 D | [CE]2 [DE]2 [CE]2 (3CDE | [B,D]2 [A,C]2 [G,B,]3 D | %58
 [CE]2 [DE]2!pp! [CE]4 | [F,F]4[K:treble] (3B,BB, (3:2:4BB,C/D/ | %60
!<(! [E,E]4!<)! (3A,AA, (3:2:4AA,B,/C/ | [DFA]2!<(! [D_G__B]2 [DFA]2!<)! [DG=B]2 | %62
 A2!>(! A2 [B,=G][A,A]!>)![B,G][A,A] | (3z EB, (3z EB, (3z B,C (3z B,D | [A,CE]4 [A,B,DE]4 | %65
 F3 E [A,CE][F,A,D][F,=A,][B,,F,B,] | [_A,C]4 B,3 E | [A,C]4 [B,D]2 [=B,=D]2 | %68
 [A,CE]4!<)!!<(! [A,B,DE]4 | [A,CE]4 _GFCD | E,8 | [A,,A,]6!ppp! C2 | D4 E4 | F6 C2 | %74
!<(! D2 E2 F2!<)!!>(! E!>)!D | C4 E4 | [A,CE]6[K:treble] [Cc]2 | c2 B2- BdcB | B3 A A4 | %79
!<(! A6!<)! A2 | [EA]4 [E=A]4 | [GB]4 [G=B]4 |"^molto dim" [Ac]8 |!pp! E4 F2 G2 | %84
!>(! A2 G2 B2!ppp! A2!>)! |!pppp! A8 |] %86
V:8
 [A,C]8- | [A,C]8 | [A,D]8- | [A,C]8 | x8 | [A,C]4 x4 | x4 E,4 | A,8 | x8 | x8 | x8 | x8 | E,8 | %13
 E,4 A,2 x2 | E,8 | E,4 A,4 | x4[K:treble] x4 | x8 | x8 | [DF][CE][DF][CE] E2 E2 | %20
 E,2 E,2 B,A,B,A, | G,^F,G,=F, E,B,, E,2 | x8 | [E,G,]6 [=E,B,]2 | x8 | [A,_C]6 [A,C]2 | x8 | x8 | %28
 x8 | x8 | x8 | x8 | x8 | x8 | x8 | x8 | x8 | x8 | x8 | x8 | x8 | x8 | x8 | x8 | x8 | x8 | C,8 | %47
 x8 | x8 | F,4 E,2 _D,2 | C,8 | C,4 D,4 | x8 | x8 | x8 | E,8 | E,4 A,2 x2 | E,8 | E,4 A,4 | %59
 x4[K:treble] x4 | x8 | x8 | [DF][CE][DF][CE] E2 E2 | E,2 E,2 E,2 E,2 | x8 | [A,C]4 x4 | E,4 E,4 | %67
 x4 A,4 | x8 | x8 | x8 | x8 | x8 | x8 | x8 | E,8 | x16/3[K:treble] x8/3 | D4 E4 | F4 F4 | %79
 D2 E2!>(! _GFE!>)!D | C4 C4 | E4 E4 | x8 | [A,C]8- | [A,C]8 | [A,C]8 |] %86

